X:31
T: KAFFEECHEN KAFFEECHEN
N: F0092
O: Europa, Mitteleuropa, Deutschland
R: Scherz -, Loblied auf Kaffee
M: 3/8
L: 1/16
K: F
c2 | c2A2c2 | c2A2c2 | d2d2fd | c4
A2 | B2B2B2 | A2B2c2 | c2B2A2 | G4
G2 | G2E2G2 | A2A2A2 | B2A2G2 | c4
c2 | d2defd | c2A2c2 | B2G2E2 | F4

